src/assets/images/Footer Logo.svg

<svg width="149" height="30" viewBox="0 0 149 30" fill="none" xmlns="http://www.w3.org/2000/svg">
<path d="M42.0138 11.0909V13.3636H35.4442V11.0909H42.0138ZM36.9357 8.47727H39.9613V18.6477C39.9613 18.9271 40.0039 19.1449 40.0891 19.3011C40.1744 19.4527 40.2927 19.5592 40.4442 19.6207C40.6005 19.6823 40.7804 19.7131 40.984 19.7131C41.1261 19.7131 41.2681 19.7012 41.4102 19.6776C41.5522 19.6491 41.6611 19.6278 41.7369 19.6136L42.2127 21.8651C42.0612 21.9124 41.8481 21.9669 41.5735 22.0284C41.2989 22.0947 40.9651 22.1349 40.5721 22.1491C39.8429 22.1776 39.2037 22.0805 38.6545 21.858C38.11 21.6354 37.6862 21.2898 37.3832 20.821C37.0801 20.3523 36.931 19.7604 36.9357 19.0455V8.47727ZM48.7965 22.2131C47.6933 22.2131 46.7392 21.9787 45.9343 21.5099C45.1341 21.0365 44.5162 20.3783 44.0806 19.5355C43.645 18.688 43.4272 17.7055 43.4272 16.5881C43.4272 15.4612 43.645 14.4763 44.0806 13.6335C44.5162 12.786 45.1341 12.1278 45.9343 11.6591C46.7392 11.1856 47.6933 10.9489 48.7965 10.9489C49.8997 10.9489 50.8514 11.1856 51.6516 11.6591C52.4566 12.1278 53.0768 12.786 53.5124 13.6335C53.948 14.4763 54.1658 15.4612 54.1658 16.5881C54.1658 17.7055 53.948 18.688 53.5124 19.5355C53.0768 20.3783 52.4566 21.0365 51.6516 21.5099C50.8514 21.9787 49.8997 22.2131 48.7965 22.2131ZM48.8107 19.8693C49.3126 19.8693 49.7317 19.7273 50.0678 19.4432C50.404 19.1544 50.6573 18.7614 50.8278 18.2642C51.003 17.767 51.0906 17.2012 51.0906 16.5668C51.0906 15.9323 51.003 15.3665 50.8278 14.8693C50.6573 14.3722 50.404 13.9792 50.0678 13.6903C49.7317 13.4015 49.3126 13.2571 48.8107 13.2571C48.3041 13.2571 47.878 13.4015 47.5323 13.6903C47.1914 13.9792 46.9334 14.3722 46.7582 14.8693C46.5877 15.3665 46.5025 15.9323 46.5025 16.5668C46.5025 17.2012 46.5877 17.767 46.7582 18.2642C46.9334 18.7614 47.1914 19.1544 47.5323 19.4432C47.878 19.7273 48.3041 19.8693 48.8107 19.8693ZM56.19 22V7.45455H59.2156V12.9233H59.3079C59.4405 12.6297 59.6322 12.3314 59.8832 12.0284C60.1388 11.7206 60.4703 11.465 60.8775 11.2614C61.2894 11.053 61.8008 10.9489 62.4116 10.9489C63.207 10.9489 63.9409 11.1572 64.6133 11.5739C65.2856 11.9858 65.823 12.6084 66.2255 13.4418C66.628 14.2704 66.8292 15.3097 66.8292 16.5597C66.8292 17.7765 66.6327 18.804 66.2397 19.642C65.8514 20.4754 65.3211 21.1075 64.6488 21.5384C63.9812 21.9645 63.2331 22.1776 62.4045 22.1776C61.8174 22.1776 61.3178 22.0805 60.9059 21.8864C60.4987 21.6922 60.1649 21.4484 59.9045 21.1548C59.6441 20.8565 59.4452 20.5559 59.3079 20.2528H59.1729V22H56.19ZM59.1516 16.5455C59.1516 17.1941 59.2416 17.7599 59.4215 18.2429C59.6014 18.7259 59.8619 19.1023 60.2028 19.3722C60.5437 19.6373 60.958 19.7699 61.4457 19.7699C61.9381 19.7699 62.3548 19.6349 62.6957 19.3651C63.0366 19.0904 63.2946 18.7116 63.4698 18.2287C63.6497 17.741 63.7397 17.1799 63.7397 16.5455C63.7397 15.9157 63.6521 15.3617 63.4769 14.8835C63.3017 14.4053 63.0437 14.0312 62.7028 13.7614C62.3619 13.4915 61.9428 13.3565 61.4457 13.3565C60.9532 13.3565 60.5366 13.4867 60.1957 13.7472C59.8595 14.0076 59.6014 14.3769 59.4215 14.8551C59.2416 15.3333 59.1516 15.8968 59.1516 16.5455ZM73.8196 22.2131C72.6974 22.2131 71.7315 21.9858 70.9219 21.5312C70.117 21.072 69.4967 20.4233 69.0611 19.5852C68.6255 18.7424 68.4077 17.7457 68.4077 16.5952C68.4077 15.473 68.6255 14.4882 69.0611 13.6406C69.4967 12.7931 70.1098 12.1326 70.9006 11.6591C71.696 11.1856 72.6288 10.9489 73.6989 10.9489C74.4186 10.9489 75.0885 11.0649 75.7088 11.2969C76.3338 11.5241 76.8783 11.8674 77.3423 12.3267C77.8111 12.786 78.1757 13.3636 78.4361 14.0597C78.6965 14.7509 78.8267 15.5606 78.8267 16.4886V17.3196H69.6151V15.4446H75.9787C75.9787 15.009 75.884 14.6231 75.6946 14.2869C75.5052 13.9508 75.2424 13.688 74.9062 13.4986C74.5748 13.3045 74.1889 13.2074 73.7486 13.2074C73.2893 13.2074 72.8821 13.3139 72.527 13.527C72.1766 13.7353 71.902 14.017 71.7031 14.3722C71.5043 14.7225 71.4025 15.1132 71.3977 15.544V17.3267C71.3977 17.8665 71.4972 18.3329 71.696 18.7259C71.8996 19.1188 72.1861 19.4219 72.5554 19.6349C72.9247 19.848 73.3627 19.9545 73.8693 19.9545C74.2055 19.9545 74.5133 19.9072 74.7926 19.8125C75.072 19.7178 75.3111 19.5758 75.5099 19.3864C75.7088 19.197 75.8603 18.965 75.9645 18.6903L78.7628 18.875C78.6207 19.5473 78.3295 20.1345 77.8892 20.6364C77.4536 21.1335 76.8902 21.5218 76.1989 21.8011C75.5123 22.0758 74.7192 22.2131 73.8196 22.2131ZM83.8267 7.45455V22H80.8011V7.45455H83.8267ZM86.2504 22V11.0909H89.2759V22H86.2504ZM87.7702 9.68466C87.3204 9.68466 86.9345 9.53551 86.6126 9.23722C86.2953 8.93419 86.1367 8.57197 86.1367 8.15057C86.1367 7.7339 86.2953 7.37642 86.6126 7.07812C86.9345 6.77509 87.3204 6.62358 87.7702 6.62358C88.2201 6.62358 88.6036 6.77509 88.9208 7.07812C89.2428 7.37642 89.4038 7.7339 89.4038 8.15057C89.4038 8.57197 89.2428 8.93419 88.9208 9.23722C88.6036 9.53551 88.2201 9.68466 87.7702 9.68466ZM100.776 14.2017L98.0064 14.3722C97.959 14.1354 97.8572 13.9223 97.701 13.733C97.5447 13.5388 97.3388 13.3849 97.0831 13.2713C96.8321 13.1529 96.5315 13.0938 96.1811 13.0938C95.7124 13.0938 95.317 13.1932 94.995 13.392C94.6731 13.5862 94.5121 13.8466 94.5121 14.1733C94.5121 14.4337 94.6162 14.6539 94.8246 14.8338C95.0329 15.0137 95.3904 15.1581 95.897 15.267L97.8714 15.6648C98.9321 15.8826 99.7228 16.233 100.244 16.7159C100.764 17.1989 101.025 17.8333 101.025 18.6193C101.025 19.3343 100.814 19.9616 100.393 20.5014C99.9761 21.0412 99.4032 21.4626 98.674 21.7656C97.9496 22.0639 97.1139 22.2131 96.1669 22.2131C94.7228 22.2131 93.5722 21.9124 92.7152 21.3111C91.8629 20.705 91.3634 19.8812 91.2166 18.8395L94.1925 18.6832C94.2824 19.1236 94.5002 19.4598 94.8459 19.6918C95.1915 19.919 95.6342 20.0327 96.174 20.0327C96.7043 20.0327 97.1304 19.9309 97.4524 19.7273C97.7791 19.5189 97.9448 19.2514 97.9496 18.9247C97.9448 18.6501 97.8288 18.4252 97.6016 18.25C97.3743 18.0701 97.0239 17.9328 96.5504 17.8381L94.6612 17.4616C93.5959 17.2486 92.8028 16.8793 92.282 16.3537C91.7659 15.8281 91.5078 15.1581 91.5078 14.3438C91.5078 13.643 91.6972 13.0393 92.076 12.5327C92.4595 12.026 92.9969 11.6354 93.6882 11.3608C94.3842 11.0862 95.1986 10.9489 96.1314 10.9489C97.5092 10.9489 98.5935 11.2401 99.3842 11.8224C100.18 12.4048 100.644 13.1979 100.776 14.2017ZM108.733 11.0909V13.3636H102.163V11.0909H108.733ZM103.654 8.47727H106.68V18.6477C106.68 18.9271 106.723 19.1449 106.808 19.3011C106.893 19.4527 107.011 19.5592 107.163 19.6207C107.319 19.6823 107.499 19.7131 107.703 19.7131C107.845 19.7131 107.987 19.7012 108.129 19.6776C108.271 19.6491 108.38 19.6278 108.456 19.6136L108.931 21.8651C108.78 21.9124 108.567 21.9669 108.292 22.0284C108.018 22.0947 107.684 22.1349 107.291 22.1491C106.562 22.1776 105.922 22.0805 105.373 21.858C104.829 21.6354 104.405 21.2898 104.102 20.821C103.799 20.3523 103.65 19.7604 103.654 19.0455V8.47727ZM112.472 22.1847C112.003 22.1847 111.601 22.0189 111.265 21.6875C110.933 21.3513 110.767 20.9489 110.767 20.4801C110.767 20.0161 110.933 19.6184 111.265 19.2869C111.601 18.9555 112.003 18.7898 112.472 18.7898C112.926 18.7898 113.324 18.9555 113.665 19.2869C114.006 19.6184 114.176 20.0161 114.176 20.4801C114.176 20.7926 114.096 21.0791 113.935 21.3395C113.779 21.5952 113.573 21.8011 113.317 21.9574C113.061 22.1089 112.78 22.1847 112.472 22.1847ZM119.686 15.6932V22H116.661V11.0909H119.544V13.0156H119.672C119.913 12.3812 120.318 11.8793 120.886 11.5099C121.455 11.1359 122.143 10.9489 122.953 10.9489C123.711 10.9489 124.371 11.1146 124.935 11.446C125.498 11.7775 125.936 12.2509 126.249 12.8665C126.561 13.4773 126.717 14.2064 126.717 15.054V22H123.692V15.5938C123.696 14.9261 123.526 14.4053 123.18 14.0312C122.835 13.6525 122.359 13.4631 121.753 13.4631C121.346 13.4631 120.986 13.5507 120.673 13.7259C120.366 13.901 120.124 14.1567 119.949 14.4929C119.778 14.8243 119.691 15.2244 119.686 15.6932ZM134.074 22.2131C132.951 22.2131 131.985 21.9858 131.176 21.5312C130.371 21.072 129.751 20.4233 129.315 19.5852C128.879 18.7424 128.662 17.7457 128.662 16.5952C128.662 15.473 128.879 14.4882 129.315 13.6406C129.751 12.7931 130.364 12.1326 131.154 11.6591C131.95 11.1856 132.883 10.9489 133.953 10.9489C134.672 10.9489 135.342 11.0649 135.963 11.2969C136.588 11.5241 137.132 11.8674 137.596 12.3267C138.065 12.786 138.43 13.3636 138.69 14.0597C138.95 14.7509 139.081 15.5606 139.081 16.4886V17.3196H129.869V15.4446H136.233C136.233 15.009 136.138 14.6231 135.949 14.2869C135.759 13.9508 135.496 13.688 135.16 13.4986C134.829 13.3045 134.443 13.2074 134.002 13.2074C133.543 13.2074 133.136 13.3139 132.781 13.527C132.431 13.7353 132.156 14.017 131.957 14.3722C131.758 14.7225 131.656 15.1132 131.652 15.544V17.3267C131.652 17.8665 131.751 18.3329 131.95 18.7259C132.154 19.1188 132.44 19.4219 132.809 19.6349C133.179 19.848 133.617 19.9545 134.123 19.9545C134.459 19.9545 134.767 19.9072 135.047 19.8125C135.326 19.7178 135.565 19.5758 135.764 19.3864C135.963 19.197 136.114 18.965 136.218 18.6903L139.017 18.875C138.875 19.5473 138.583 20.1345 138.143 20.6364C137.708 21.1335 137.144 21.5218 136.453 21.8011C135.766 22.0758 134.973 22.2131 134.074 22.2131ZM146.858 11.0909V13.3636H140.288V11.0909H146.858ZM141.779 8.47727H144.805V18.6477C144.805 18.9271 144.848 19.1449 144.933 19.3011C145.018 19.4527 145.136 19.5592 145.288 19.6207C145.444 19.6823 145.624 19.7131 145.828 19.7131C145.97 19.7131 146.112 19.7012 146.254 19.6776C146.396 19.6491 146.505 19.6278 146.581 19.6136L147.056 21.8651C146.905 21.9124 146.692 21.9669 146.417 22.0284C146.143 22.0947 145.809 22.1349 145.416 22.1491C144.687 22.1776 144.047 22.0805 143.498 21.858C142.954 21.6354 142.53 21.2898 142.227 20.821C141.924 20.3523 141.775 19.7604 141.779 19.0455V8.47727Z" fill="#151617"/>
<rect width="23.6817" height="4.80988" rx="0.3" transform="matrix(0.91047 -0.413576 0.269398 0.963029 4.14844 24.625)" fill="#195BFF"/>
<rect width="23.6817" height="4.80988" rx="0.3" transform="matrix(0.91047 -0.413576 0.269398 0.963029 2.07422 17.2109)" fill="#195BFF"/>
<rect width="23.6817" height="4.80988" rx="0.3" transform="matrix(0.91047 -0.413576 0.269398 0.963029 0 9.79688)" fill="#195BFF"/>
</svg>

<svg xmlns="http://www.w3.org/2000/svg" width="149" height="30" fill="none"><path fill="#151617" d="M42.014 11.09v2.274h-6.57V11.09h6.57Zm-5.078-2.613h3.025v10.17c0 .28.043.498.128.654a.704.704 0 0 0 .355.32c.156.061.336.092.54.092.142 0 .284-.012.426-.035.142-.029.251-.05.327-.064l.476 2.251a8.515 8.515 0 0 1-.64.163 5.124 5.124 0 0 1-1 .121c-.73.029-1.37-.069-1.919-.291a2.676 2.676 0 0 1-1.27-1.037c-.304-.469-.453-1.06-.448-1.776V8.478Zm11.86 13.736c-1.103 0-2.057-.234-2.862-.703a4.81 4.81 0 0 1-1.853-1.975c-.436-.847-.654-1.83-.654-2.947 0-1.127.218-2.112.654-2.955a4.754 4.754 0 0 1 1.853-1.974c.805-.473 1.76-.71 2.863-.71s2.054.237 2.855.71a4.74 4.74 0 0 1 1.86 1.974c.436.843.654 1.828.654 2.955 0 1.117-.218 2.1-.654 2.947a4.797 4.797 0 0 1-1.86 1.975c-.8.469-1.752.703-2.855.703Zm.015-2.344c.502 0 .92-.142 1.257-.426.336-.289.59-.682.76-1.179.175-.497.263-1.063.263-1.697 0-.635-.088-1.2-.263-1.698-.17-.497-.424-.89-.76-1.179-.336-.288-.755-.433-1.257-.433-.507 0-.933.145-1.279.433-.34.29-.599.682-.774 1.18-.17.497-.256 1.062-.256 1.697 0 .634.086 1.2.256 1.697.175.497.433.89.774 1.18.346.283.772.425 1.279.425ZM56.19 22V7.455h3.026v5.468h.092a4 4 0 0 1 .575-.895c.256-.307.587-.563.994-.767.412-.208.924-.312 1.535-.312a4.1 4.1 0 0 1 2.201.625c.673.412 1.21 1.034 1.612 1.868.403.828.604 1.868.604 3.118 0 1.216-.196 2.244-.59 3.082-.388.833-.918 1.466-1.59 1.896a4.084 4.084 0 0 1-2.245.64c-.587 0-1.086-.098-1.498-.292a3.1 3.1 0 0 1-1.002-.731 3.714 3.714 0 0 1-.596-.902h-.135V22H56.19Zm2.962-5.454c0 .648.09 1.214.27 1.697.18.483.44.86.78 1.13.342.264.756.397 1.244.397.492 0 .909-.135 1.25-.405.34-.275.599-.653.774-1.136.18-.488.27-1.05.27-1.683 0-.63-.088-1.184-.263-1.662-.175-.479-.433-.853-.774-1.123s-.76-.404-1.257-.404c-.493 0-.91.13-1.25.39-.337.26-.595.63-.774 1.108-.18.478-.27 1.042-.27 1.69Zm14.668 5.667c-1.123 0-2.088-.227-2.898-.682a4.669 4.669 0 0 1-1.86-1.946c-.436-.843-.654-1.84-.654-2.99 0-1.122.218-2.107.653-2.954a4.83 4.83 0 0 1 1.84-1.982c.795-.473 1.728-.71 2.798-.71.72 0 1.39.116 2.01.348.625.227 1.17.57 1.633 1.03.47.459.834 1.037 1.094 1.733.26.69.39 1.5.39 2.429v.83h-9.21v-1.874h6.363c0-.436-.095-.822-.284-1.158a2.035 2.035 0 0 0-.789-.788 2.248 2.248 0 0 0-1.157-.292c-.46 0-.867.107-1.222.32a2.24 2.24 0 0 0-.824.845c-.199.35-.3.741-.305 1.172v1.783c0 .54.1 1.006.298 1.399.204.393.49.696.86.909.369.213.807.32 1.313.32.337 0 .644-.048.924-.142a1.842 1.842 0 0 0 1.171-1.123l2.799.185a3.822 3.822 0 0 1-.874 1.761c-.435.498-.999.886-1.69 1.165-.687.275-1.48.412-2.38.412ZM83.827 7.455V22H80.8V7.455h3.026ZM86.25 22V11.09h3.026V22H86.25Zm1.52-12.315c-.45 0-.835-.15-1.157-.448a1.45 1.45 0 0 1-.476-1.086c0-.417.158-.775.476-1.073a1.63 1.63 0 0 1 1.157-.454c.45 0 .834.151 1.15.454.323.298.484.656.484 1.073 0 .421-.161.783-.483 1.086-.317.299-.7.448-1.15.448Zm13.006 4.517-2.77.17a1.432 1.432 0 0 0-.305-.639 1.62 1.62 0 0 0-.618-.462 2.099 2.099 0 0 0-.902-.177c-.469 0-.864.1-1.186.298-.322.194-.483.455-.483.781 0 .26.104.48.313.66.208.18.565.325 1.072.434l1.974.398c1.061.218 1.852.568 2.373 1.05.52.484.781 1.118.781 1.904 0 .715-.211 1.343-.632 1.882-.417.54-.99.962-1.719 1.265-.724.298-1.56.447-2.507.447-1.444 0-2.595-.3-3.452-.902-.852-.606-1.352-1.43-1.498-2.471l2.975-.157c.09.44.308.777.654 1.009.346.227.788.34 1.328.34.53 0 .956-.101 1.278-.305.327-.208.493-.476.498-.802a.835.835 0 0 0-.348-.675c-.228-.18-.578-.317-1.052-.412l-1.889-.376c-1.065-.213-1.858-.583-2.379-1.108-.516-.526-.774-1.196-.774-2.01 0-.701.19-1.305.568-1.811.384-.507.92-.898 1.612-1.172.696-.275 1.51-.412 2.443-.412 1.378 0 2.463.291 3.253.873.796.583 1.26 1.376 1.392 2.38Zm7.957-3.111v2.273h-6.57V11.09h6.57Zm-5.079-2.614h3.026v10.17c0 .28.043.498.128.654a.701.701 0 0 0 .355.32c.156.061.336.092.54.092.142 0 .284-.012.426-.035.142-.029.251-.05.327-.064l.475 2.251a8.391 8.391 0 0 1-.639.163 5.113 5.113 0 0 1-1.001.121c-.729.029-1.369-.069-1.918-.291a2.678 2.678 0 0 1-1.271-1.037c-.303-.469-.452-1.06-.448-1.776V8.478Zm8.818 13.708a1.66 1.66 0 0 1-1.207-.497 1.658 1.658 0 0 1-.498-1.208c0-.464.166-.862.498-1.193a1.658 1.658 0 0 1 1.207-.497c.454 0 .852.166 1.193.497.341.331.511.73.511 1.193 0 .313-.08.6-.241.86a1.832 1.832 0 0 1-.618.617 1.627 1.627 0 0 1-.845.228Zm7.214-6.492V22h-3.025V11.09h2.883v1.926h.128a3.042 3.042 0 0 1 1.214-1.506c.569-.374 1.257-.561 2.067-.561.758 0 1.418.166 1.982.497a3.385 3.385 0 0 1 1.314 1.42c.312.611.468 1.34.468 2.188V22h-3.025v-6.406c.004-.668-.166-1.189-.512-1.563-.345-.379-.821-.568-1.427-.568-.407 0-.767.088-1.08.263-.307.175-.549.43-.724.767-.171.331-.258.731-.263 1.2Zm14.388 6.52c-1.123 0-2.089-.227-2.898-.682a4.671 4.671 0 0 1-1.861-1.946c-.436-.843-.653-1.84-.653-2.99 0-1.122.217-2.107.653-2.954a4.836 4.836 0 0 1 1.839-1.982c.796-.473 1.729-.71 2.799-.71.719 0 1.389.116 2.01.348.625.227 1.169.57 1.633 1.03.469.459.834 1.037 1.094 1.733.26.69.391 1.5.391 2.429v.83h-9.212v-1.874h6.364c0-.436-.095-.822-.284-1.158a2.042 2.042 0 0 0-.789-.788 2.248 2.248 0 0 0-1.158-.292c-.459 0-.866.107-1.221.32-.35.208-.625.49-.824.845-.199.35-.301.741-.305 1.172v1.783c0 .54.099 1.006.298 1.399.204.393.49.696.859.909.37.213.808.32 1.314.32.336 0 .644-.048.924-.142a1.842 1.842 0 0 0 1.171-1.123l2.799.185a3.825 3.825 0 0 1-.874 1.761c-.435.498-.999.886-1.69 1.165-.687.275-1.48.412-2.379.412Zm12.784-11.122v2.273h-6.57V11.09h6.57Zm-5.079-2.614h3.026v10.17c0 .28.043.498.128.654a.701.701 0 0 0 .355.32c.156.061.336.092.54.092.142 0 .284-.012.426-.035.142-.029.251-.05.327-.064l.475 2.251a8.391 8.391 0 0 1-.639.163 5.113 5.113 0 0 1-1.001.121c-.729.029-1.369-.069-1.918-.291a2.678 2.678 0 0 1-1.271-1.037c-.303-.469-.452-1.06-.448-1.776V8.478Z"/><rect width="23.682" height="4.81" fill="#195BFF" rx=".3" transform="matrix(.91047 -.41358 .2694 .96303 4.148 24.625)"/><rect width="23.682" height="4.81" fill="#195BFF" rx=".3" transform="matrix(.91047 -.41358 .2694 .96303 2.074 17.21)"/><rect width="23.682" height="4.81" fill="#195BFF" rx=".3" transform="matrix(.91047 -.41358 .2694 .96303 0 9.797)"/></svg>
